X:1
T:Horren e Munkberg
R:Polska
Z:Patrik Mnsson, 2008-11-03
O:Barsebck, Skne
S:efter Per Munkberg
B:Omtyckta sknska allspelsltar
M:3/4
L:1/8
K:Dm
|: (A | A2) d>(^c d)e | [fA]2 [fA]g e>^g | a2 a(^g a)d | f2 e^c A[AF] | A2 d>(^c d)e |
 A2 d>(^c d)e | [fA]2 [fA]g e>^g | a2 a(^g a)[fd] | (3Ace (d2 [dD]) :: a2 ab ga | f2 fg e^g | a2 a^g ad |
fe e^c A[AF] | A2 d>(^c d)e | [fA]2 [fA]g e>^g | a2 a(^g a)[fd] | (3Ace (d2 [dD]2) :|
